!!!COM:	la Rue, Pierre de
!!!CDT:	~1452///-1518/11/20
!!!OTL:	Salve regina III
!!!AGN:	Motet
!!!SCT:	Rue2023
!!!SCA:	Rue2023
!!!voices:	4
**kern	**kern	**kern	**kern
*staff4	*staff3	*staff2	*staff1
*Ivox	*Ivox	*Ivox	*Ivox
*I"Bassus	*I"Tenor	*I"Contra	*I"Discantus
*I'B	*I'T	*I'C	*I'D
*>[A,B]	*>[A,B]	*>[A,B]	*>[A,B]
*>A	*>A	*>A	*>A
*clefF4	*clefGv2	*clefG2	*clefG2
*k[]	*k[]	*k[]	*k[]
*M2/1	*M2/1	*M2/1	*M2/1
*met(C)	*met(C)	*met(C)	*met(C)
!!section: Salve regina
!!!OMD: Salve regina
=1-	=1-	=1-	=1-
0r	1e	0r	0r
.	2d\	.	.
.	[2e\	.	.
=2	=2	=2	=2
1A	4e\]	0r	0r
.	4d\	.	.
.	4c\	.	.
.	4A/	.	.
2G\	2B\	.	.
[2A\	2A/	.	.
=3	=3	=3	=3
4A\]	0r	1a	0r
4G\	.	.	.
4F\	.	.	.
4D\	.	.	.
2E\	.	2g/	.
2D\	.	[2a/	.
=4	=4	=4	=4
1D	0r	4a/]	1dd
.	.	4g/	.
.	.	4f/	.
.	.	4d/	.
2A\	.	2e/	2cc\
[2B\	.	2d/	[2dd\
=5	=5	=5	=5
4B\]	1e	2r	4dd\]
4A\	.	.	4cc\
4G\	.	2g/	4b\
4E\	.	.	4g/
2F\	2d\	2f/	2a/
2E\	[2e\	[2g/	2g/
=6	=6	=6	=6
1r	4e\]	4g/]	1ee
.	4d\	4f/	.
.	4c\	4e/	.
.	4A/	4c/	.
2r	2B\	2d/	2dd\
[2c\	[2A/	[2c/	[2ee\
=7	=7	=7	=7
4c\]	2A/]	4c/]	4ee\]
4B\	.	4d/	4dd\
4A\	2A/	4e/	4cc\
4F\	.	4f/	4a/
2G\	2.e\	2e/	2b\
2A\	.	2A/	[2a/
.	4d\	.	.
=8	=8	=8	=8
1E	4c\	0e	2a/]
.	4A/	.	.
.	2B\	.	2g#i/
2r	1A	.	2a/
[2c\	.	.	[2ee\
=9	=9	=9	=9
4c\]	0r	2r	4ee\]
4B\	.	.	4dd\
2G\	.	2g/	2b\
2F\	.	2a/	2cc\
2A\	.	[2cc\	[2a/
=10	=10	=10	=10
1E	0r	2cc\]	2a/]
.	.	2b\	2g/
1r	.	2cc\	4a/
.	.	.	4b\
.	.	2a/	4cc\
.	.	.	4dd\
=11	=11	=11	=11
0r	1e	4g/	1ee
.	.	4a/	.
.	.	4b\	.
.	.	4cc\	.
.	1d	2.dd\	2.ff\
.	.	4cc\	4ee\
=12	=12	=12	=12
0r	0e	4b\	4dd\
.	.	4a/	4cc\
.	.	4g#i/	4b\
.	.	4f#i/	4a/
.	.	1g#i	1b
=13	=13	=13	=13
0A	2A/	1a	1a
.	2.e\	.	.
.	.	1r	1r
.	4d\	.	.
.	2f\	.	.
=14	=14	=14	=14
1B	4f\	0r	0r
.	4e\	.	.
.	4d\	.	.
.	4c\	.	.
2G\	2B\	.	.
2A\	2A/	.	.
=15	=15	=15	=15
2r	2r	1a	0cc
1A	2.e\	.	.
.	.	2e/	.
.	4d\	.	.
2A\	[2f\	[2a/	.
=16	=16	=16	=16
1B	2f\]	2a/]	1dd
.	2d\	2g/	.
1A	2e\	2.a/	2.cc\
.	2A/	.	.
.	.	4g/	4dd\
=17	=17	=17	=17
2r	2r	2e/	2ee\
1A	2.e\	2.a/	2a/
.	.	.	1cc
.	4d\	4g/	.
2A\	[2f\	4f/	.
.	.	4e/	.
=18	=18	=18	=18
2B\	2f\]	2d/	2dd\
2c\	1e	1a	2cc\
1B	.	.	1dd
.	2d\	2g#i/	.
=19	=19	=19	=19
0A	0e	0a	1cc
.	.	.	2r
.	.	.	4a/
.	.	.	4b\
=20	=20	=20	=20
0r	0r	2r	4cc\
.	.	.	4a/
.	.	4d/	1dd
.	.	4e/	.
.	.	4f/	.
.	.	4d/	.
.	.	[2a/	2cc\
=21	=21	=21	=21
0r	0r	2a/]	2b\
.	.	2g#i/	2ee\
.	.	[1a	4cc\
.	.	.	4dd\
.	.	.	4ee\
.	.	.	4cc\
=22	=22	=22	=22
2r	0r	0a]	2ff\
4A\	.	.	1ee
4B\	.	.	.
4c\	.	.	.
4A\	.	.	.
2d\	.	.	2dd\
=23	=23	=23	=23
0c	4e\	0r	0ee
.	4f\	.	.
.	4g\	.	.
.	4e\	.	.
.	2a\	.	.
.	[2g\	.	.
=24	=24	=24	=24
4G\	4g\]	0r	0r
4A\	4f\	.	.
4B\	2d\	.	.
4G\	.	.	.
1c	4c\	.	.
.	4d\	.	.
.	4e\	.	.
.	4c\	.	.
=25	=25	=25	=25
4F\	2f\	0r	0r
4G\	.	.	.
4A\	4e\	.	.
4F\	2d\	.	.
2B-i\	.	.	.
.	4c\	.	.
[2A\	4B-i\	.	.
.	4A/	.	.
=26	=26	=26	=26
2A\]	1B-i	1r	1r
2G\	.	.	.
[1A	[1A	2.a/	[1cc
.	.	4g/	.
=27	=27	=27	=27
1A]	1A]	2e/	1cc]
.	.	1f	.
1D	1r	.	1dd
.	.	4e/	.
.	.	4d/	.
=28	=28	=28	=28
0r	0r	4c/	2.ee\
.	.	4d/	.
.	.	4e/	.
.	.	4f/	4dd\
.	.	2g/	2b\
.	.	2a/	[2cc\
=29	=29	=29	=29
1r	0r	1f	2cc\]
.	.	.	4b\
.	.	.	4a/
4E\	.	1e	4g/
4F\	.	.	4a/
4G\	.	.	4b\
4A\	.	.	4cc\
=30	=30	=30	=30
2B\	1r	0r	2dd\
2c\	.	.	2ee\
1A	4c\	.	1cc
.	4d\	.	.
.	4e\	.	.
.	4f\	.	.
=31	=31	=31	=31
1G	2.g\	0r	2b\
.	.	.	1ee
.	4a\	.	.
1r	1f	.	.
.	.	.	2dd\
=32	=32	=32	=32
1A	0e	0r	0ee
2A\	.	.	.
[2c\	.	.	.
=33	=33	=33	=33
4c\]	2r	0r	0r
4B\	.	.	.
4A\	1A	.	.
4G\	.	.	.
2F\	.	.	.
[2E\	2B\	.	.
=34	=34	=34	=34
2E\]	2c\	0r	0r
2D\	1d	.	.
2D\	.	.	.
2E\	2G/	.	.
=35	=35	=35	=35
2F\	2A/	0r	0r
1G	2B\	.	.
.	1c	.	.
2C/	.	.	.
=36	=36	=36	=36
2.D\	2B\	2r	0r
.	1e	2a/	.
4E\	.	.	.
1F	.	1a	.
.	2d\	.	.
=37	=37	=37	=37
1E	1e	1g	1r
1r	1r	2cc\	2r
.	.	[2cc\	2ee\
=38	=38	=38	=38
0r	0r	2cc\]	1ee
.	.	2a/	.
.	.	4b\	1dd
.	.	4a/	.
.	.	4g/	.
.	.	4f/	.
=39	=39	=39	=39
0r	0r	2e/	2cc\
.	.	1a	1cc
.	.	2f/	2a/
=40	=40	=40	=40
1r	1r	2g/	2b\
.	.	2a/	2a/
1A	1e	2.cc\	2.ee\
.	.	4b\	4dd\
=41	=41	=41	=41
2A\	2e\	4a/	4cc\
.	.	4g/	4b\
1G	2B\	4b\	4dd\
.	.	4a/	4cc\
.	2d\	4g/	4b\
.	.	4f/	4a/
2A\	2c\	[2e/	[2a/
=42	=42	=42	=42
1E	1B	2e/]	2a/]
.	.	2e/	2g#i/
2AA/	4A/	1c	1a
.	4B\	.	.
2A\	4c\	.	.
.	4d\	.	.
=43	=43	=43	=43
2G\	2e\	2B/	1r
2.A\	1f	2.c/	.
.	.	.	1a
4G\	.	4B/	.
4F\	[2e\	4A/	.
4E\	.	4G/	.
=44	=44	=44	=44
1F	2e\]	1A	1r
.	2d\	.	.
1E	1e	2B/	2r
.	.	2g/	2cc\
=45	=45	=45	=45
0r	2f\	2a/	2dd\
.	1g	1b	1ee
.	[2a\	[2cc\	[2ff\
=46	=46	=46	=46
0r	4a\]	4cc\]	4ff\]
.	4g\	4b\	4ee\
.	4f\	4a/	1ee
.	4e\	4g/	.
.	1f	1a	.
.	.	.	2dd\
=47	=47	=47	=47
[0E	0e	[0b	0ee
=48	=48	=48	=48
0E]	0r	0b]	1gg
.	.	.	2ee\
.	.	.	[2gg\
=49	=49	=49	=49
2r	[0g	2r	4gg\]
.	.	.	4ff\
2G\	.	2.b\	1ee
2E\	.	.	.
.	.	4a/	.
[2G\	.	4g/	2dd\
.	.	4f/	.
=50	=50	=50	=50
4G\]	0g]	0e	2ee\
4F\	.	.	.
1E	.	.	2gg\
.	.	.	2ee\
2E\	.	.	[2gg\
=51	=51	=51	=51
2G\	0d	1r	2gg\]
1D	.	.	1ff
.	.	1f	.
2D\	.	.	4ee\
.	.	.	4dd\
=52	=52	=52	=52
2A\	1.e	2e/	2cc\
2G\	.	2.g/	2b\
1E	.	.	2.gg\
.	.	4a/	.
.	2d\	2b\	.
.	.	.	4ff\
=53	=53	=53	=53
1r	1c	2cc\	1ee
.	.	2a/	.
[1G	1B	1b	2.dd\
.	.	.	4cc\
=54	=54	=54	=54
2G\]	0d	2b\	2b\
2F\	.	2.dd\	1a
1D	.	.	.
.	.	4cc\	.
.	.	4b\	[2dd\
.	.	4a/	.
=55	=55	=55	=55
1A	1e	0a	2dd\]
.	.	.	2cc#i\
2D\	1r	.	2dd\
2F\	.	.	2a/
=56	=56	=56	=56
2G\	0r	2g/	2b\
2.A\	.	2e/	2.cc\
.	.	2f/	.
4G\	.	.	4b\
4F\	.	[2e/	4a/
4E\	.	.	4g/
=57	=57	=57	=57
1F	1A	2e/]	1a
.	.	2d/	.
[1E	[1B	[1e	[1g
=58	=58	=58	=58
1E]	1B]	1e]	1g]
1C	1c	2r	2r
.	.	[2g/	[2g/
=59	=59	=59	=59
1G	0d	4g/]	4g/]
.	.	4f/	4a/
.	.	2d/	2b\
2F\	.	[1a	2a/
2D\	.	.	[2dd\
=60	=60	=60	=60
1A	1e	0a]	2dd\]
.	.	.	2cc#i\
1D	1f	.	1dd
=61	=61	=61	=61
2r	2d\	2r	2b\
1A	1e	1a	2.cc\
.	.	.	.
.	.	.	4b\
2A\	2e\	2a/	2cc\
=62	=62	=62	=62
2D\	2f\	2a/	2dd\
1G	1d	1g	1b
2G\	2d\	[2g/	2b\
=63	=63	=63	=63
2C/	2e\	2g/]	2cc\
1F	1c	1f	1a
2A\	2c\	2f/	2a/
=64	=64	=64	=64
2.G\	2d\	1.g	2b\
.	2B\	.	1g
4F\	.	.	.
4E\	1c	.	.
4D\	.	.	.
[2C/	.	2e/	2g/
=65	=65	=65	=65
2C/]	2c\	2.g/	2a/
2.G\	2.d\	.	1b
.	.	4f/	.
.	.	2e/	.
4A\	4c\	.	.
2F\	4B\	2d/	[2a/
.	4A/	.	.
=66	=66	=66	=66
1E	1B	1e	2a/]
.	.	.	2g#i/
1AAl	1Al	1el	1al
!!LO:LB:i:g=z
=67||	=67||	=67||	=67||
*>B	*>B	*>B	*>B
*clefF4	*clefGv2	*clefG2	*clefG2
*k[]	*k[]	*k[]	*k[]
*M2/1	*M2/1	*M2/1	*M2/1
*met(C)	*met(C)	*met(C)	*met(C)
!!section: Et Jesum
!!!OMD: Et Jesum
0A	0e	0a	0cc
=68	=68	=68	=68
1G	1B	1e	1ee
1F	1d	1a	1ff
=69	=69	=69	=69
0E	[0e	[0g	1gg
.	.	.	2gg\
.	.	.	[2ee\
=70	=70	=70	=70
1r	0e]	1g]	2ee\]
.	.	.	2dd\
1A	.	1c	1cc
=71	=71	=71	=71
1G	0r	2d/	2.b\
.	.	1e	.
.	.	.	4cc\
1F	.	.	1a
.	.	2d/	.
=72	=72	=72	=72
0E	1r	0e	2.g/
.	.	.	4a/
.	1e	.	2b\
.	.	.	[2cc\
=73	=73	=73	=73
0r	1d	1r	2cc\]
.	.	.	1b
.	1c	1e	.
.	.	.	2a/
=74	=74	=74	=74
1r	[0B	1d	1b
1E	.	1e	2r
.	.	.	2ee\
=75	=75	=75	=75
1G	0B]	1B	1dd
1G	.	[1e	1b
=76	=76	=76	=76
1.A	0r	1e]	1.cc
.	.	2.c/	.
4G\	.	.	4b\
4F\	.	4d/	4a/
=77	=77	=77	=77
1E	1r	1e	1g
1G	1B	1e	1b
=78	=78	=78	=78
0F	1d	0A	2a/
.	.	.	2.dd\
.	1d	.	.
.	.	.	4cc\
.	.	.	4b\
.	.	.	4a/
=79	=79	=79	=79
0E	1.e	1B	2g/
.	.	.	1b
.	.	1e	.
.	4d\	.	2cc\
.	4c\	.	.
=80	=80	=80	=80
0r	1B	1d	2.dd\
.	.	.	4cc\
.	1d	1f	2b\
.	.	.	[2a/
=81	=81	=81	=81
0r	0c	1.e	2a/]
.	.	.	4g/
.	.	.	4f/
.	.	.	1g
.	.	4d/	.
.	.	4c/	.
=82	=82	=82	=82
1r	0B	1d	1r
1E	.	1e	1g
=83	=83	=83	=83
2.F\	0A	2c/	4a/
.	.	.	4b\
.	.	2f/	4cc\
4E\	.	.	4dd\
2C/	.	2e/	2ee\
[2D\	.	[2a/	[2ff\
=84	=84	=84	=84
4D\]	0r	2a/]	2ff\]
4E\	.	.	.
4F\	.	1a	4ee\
4G\	.	.	4dd\
2A\	.	.	2cc\
[2B-\	.	2f/	[2dd\
=85	=85	=85	=85
2B-\]	0r	2g/	2dd\]
1A	.	2a/	2cc\
.	.	1b-i	2dd\
2G\	.	.	2b-i\
=86	=86	=86	=86
0A	1A	[0a	0cc
.	1e	.	.
=87	=87	=87	=87
0D	0f	0a_	0dd
=88	=88	=88	=88
0A	0e	0a]	1.ee
.	.	.	4dd\
.	.	.	4cc\
=89	=89	=89	=89
0B-i	1r	1f	0dd
.	1d	1g	.
=90	=90	=90	=90
0A	1e	0a	0cc
.	2e\	.	.
.	[2f\	.	.
=91	=91	=91	=91
1B-i	2f\]	1f	1dd
.	2d\	.	.
1G	2e\	1g	1b-i
.	[2d\	.	.
=92	=92	=92	=92
1F	4d\]	0a	1a
.	4e\	.	.
.	2f\	.	.
2r	2e\	.	2r
2F\	2f\	.	2a/
=93	=93	=93	=93
0B-i	2d\	1r	1dd
.	1f	.	.
.	.	1f	1dd
.	2d\	.	.
=94	=94	=94	=94
1G	2e\	1g	1b-i
.	2d\	.	.
1F	1f	1a	2a/
.	.	.	[2dd\
=95	=95	=95	=95
1G	1e	1b-i	2dd\]
.	.	.	4cc\
.	.	.	4b-i\
1A	1e	1a	1cc
=96	=96	=96	=96
1D	0d	2.f/	0dd
.	.	4g/	.
2r	.	4a/	.
.	.	4b-i\	.
2F\	.	[2a/	.
=97	=97	=97	=97
2G\	0r	2a/]	0r
2B-i\	.	1g	.
1A	.	.	.
.	.	2f#i/	.
=98	=98	=98	=98
0G	1r	0g	2.b\
.	.	.	4cc\
.	2r	.	4dd\
.	.	.	4ee\
.	2B\	.	[2dd\
=99	=99	=99	=99
0r	2c\	0r	2dd\]
.	2e\	.	1cc
.	1d	.	.
.	.	.	2b\
=100	=100	=100	=100
1r	1c	2.e/	2cc\
.	.	.	2.a/
.	.	8f/L	.
.	.	8g/J	.
1F	2.A/	1a	.
.	.	.	8b\L
.	.	.	8cc\J
.	.	.	[2dd\
.	8B\L	.	.
.	8c\J	.	.
=101	=101	=101	=101
2D\	1d	2f/	2dd\]
1G	.	2d/	2b\
.	2B\	1g	1ee
2E\	[2e\	.	.
=102	=102	=102	=102
1A	2e\]	1e	2cc\
.	2c\	.	2a/
2F\	2A/	2r	2.dd\
2D\	[2d\	[2f/	.
.	.	.	4cc\
=103	=103	=103	=103
1F	4d\]	4f/]	4b\
.	4c\	4e/	4a/
.	4B\	4c/	1a
.	4A/	4d/	.
1E	1B	1e	.
.	.	.	2g#i/
=104	=104	=104	=104
0A	0A	2r	0a
.	.	2.c/	.
.	.	4d/	.
.	.	2e/	.
=105	=105	=105	=105
0r	0r	2f/	2r
.	.	2.d/	2.f/
.	.	4e/	4g/
.	.	2f/	2a/
=106	=106	=106	=106
0r	0r	2g/	2b-i\
.	.	2.e/	2.g/
.	.	4f/	4a/
.	.	2g/	2bni\
=107	=107	=107	=107
0r	0r	2a/	2cc\
.	.	2.f/	2.a/
.	.	4g/	4b\
.	.	2a/	2cc\
=108	=108	=108	=108
0r	0r	2d/	2dd\
.	.	1g	1b
.	.	2e/	[2ee\
=109	=109	=109	=109
0r	0r	1f	2ee\]
.	.	.	2dd\
.	.	2r	1ee
.	.	2e/	.
=110	=110	=110	=110
0r	0r	2f/	2r
.	.	2g/	2e/
.	.	4a/	2f/
.	.	4g/	.
.	.	4f/	2g/
.	.	4e/	.
=111	=111	=111	=111
0r	0r	2f/	4a/
.	.	.	4g/
.	.	1e	4f/
.	.	.	4e/
.	.	.	1f
.	.	2d/	.
=112	=112	=112	=112
2r	0e	1e	1e
2.E\	.	.	.
.	.	1r	1r
4F\	.	.	.
2G\	.	.	.
=113	=113	=113	=113
2A\	0f	0r	0r
2.F\	.	.	.
4G\	.	.	.
2A\	.	.	.
=114	=114	=114	=114
2B-i\	0g	0r	0r
2.G\	.	.	.
4A\	.	.	.
2Bni\	.	.	.
=115	=115	=115	=115
2c\	0e	0r	0r
1A	.	.	.
2G\	.	.	.
=116	=116	=116	=116
2A\	1c	0r	0r
2E\	.	.	.
2F\	2.d\	.	.
2G\	.	.	.
.	4e\	.	.
=117	=117	=117	=117
4A\	2f\	0r	0r
4G\	.	.	.
4F\	1e	.	.
4E\	.	.	.
1F	.	.	.
.	2d\	.	.
=118	=118	=118	=118
0E	1e	0r	0r
.	1r	.	.
=119	=119	=119	=119
[0A	0c	[0a	0ee
=120	=120	=120	=120
0A]	1e	0a]	0cc
.	1c	.	.
=121	=121	=121	=121
[0G	1.g	0b	0dd
.	4f\	.	.
.	4e\	.	.
=122	=122	=122	=122
0G]	0d	1.g	0b
.	.	4f/	.
.	.	4e/	.
=123	=123	=123	=123
0A	0c	0e	1.cc
.	.	.	4b\
.	.	.	4a/
=124	=124	=124	=124
[0D	0d	1.f	1a
.	.	.	2b\
.	.	4e/	[2a/
.	.	4d/	.
=125	=125	=125	=125
0D]	0f	0d	2a/]
.	.	.	4g/
.	.	.	4a/
.	.	.	4b\
.	.	.	4g/
.	.	.	[2dd\
=126	=126	=126	=126
2r	1e	0r	2dd\]
2A\	.	.	2cc\
1B-i	1d	.	2dd\
.	.	.	[2ff\
=127	=127	=127	=127
0A	0c	2.a/	4ff\]
.	.	.	4ee\
.	.	.	1ee
.	.	4g/	.
.	.	2e/	.
.	.	2f/	4dd\
.	.	.	4cc\
=128	=128	=128	=128
1G	0d	1g	2b\
.	.	.	2.dd\
1F	.	2a/	.
.	.	.	4cc\
.	.	2f/	2a/
=129	=129	=129	=129
0E	1e	2g/	1g
.	.	2.e/	.
.	2r	.	2r
.	.	4f/	.
.	[2e\	2g/	[2g/
=130	=130	=130	=130
0r	4e\]	2c/	4g/]
.	4c\	.	4e/
.	2d\	2a/	2f/
.	1e	2g/	2e/
.	.	2e/	2g/
=131	=131	=131	=131
2r	2d\	2f/	2f/
2E\	1e	2g/	1e
1E	.	1e	.
.	[2g\	.	[2ee\
=132	=132	=132	=132
1r	4g\]	1r	4ee\]
.	4e\	.	4cc\
.	2f\	.	2dd\
1E	1e	1g	2ee\
.	.	.	2gg\
=133	=133	=133	=133
2F\	2d\	2a/	2ff\
2G\	1e	1g	1ee
1E	.	.	.
.	2e\	2g/	2cc\
=134	=134	=134	=134
1D	1f	2.a/	2.dd\
.	.	4g/	4cc\
1G	2.d\	4f/	4b\
.	.	4e/	4a/
.	.	[2e/	[2b\
.	4c\	.	.
=135	=135	=135	=135
1F	4d\	2e/]	2b\]
.	4c\	.	.
.	4B\	2d/	1a
.	4A/	.	.
1E	1B	[1e	.
.	.	.	2g#i/
=136	=136	=136	=136
0AAl	0Al	1e]	0al
.	.	1el	.
==	==	==	==
*-	*-	*-	*-
!!!RDF**kern: l=long note in original notation
!!!RDF**kern: i=editorial accidental
!!!ENC:	Chris Gage 02-12-2013
!!!END:	2013/02/19/
!!!EED:	Jesse Rodin
!!!EEV:	2013/07/20/
!!!ONB:	Translated from MusicXML and edited on 2013/07/20/ by Craig Sapp
!!muse2ps: C^@{COM}^i2I150v85,85,85,150Q8c80
